svgs/duotone/beer-mug-empty.svg

<svg xmlns="http://www.w3.org/2000/svg" viewBox="0 0 512 512"><!--! Font Awesome Pro 6.4.0 by @fontawesome - https://fontawesome.com License - https://fontawesome.com/license (Commercial License) Copyright 2023 Fonticons, Inc. --><defs><style>.fa-secondary{opacity:.4}</style></defs><path class="fa-primary" d="M144 128c8.8 0 16 7.2 16 16V368c0 8.8-7.2 16-16 16s-16-7.2-16-16V144c0-8.8 7.2-16 16-16zm64 0c8.8 0 16 7.2 16 16V368c0 8.8-7.2 16-16 16s-16-7.2-16-16V144c0-8.8 7.2-16 16-16zm64 0c8.8 0 16 7.2 16 16V368c0 8.8-7.2 16-16 16s-16-7.2-16-16V144c0-8.8 7.2-16 16-16z"/><path class="fa-secondary" d="M32 64c0-17.7 14.3-32 32-32H352c17.7 0 32 14.3 32 32V96h51.2c42.4 0 76.8 34.4 76.8 76.8V274.9c0 30.4-17.9 57.9-45.6 70.2L384 381.7V416c0 35.3-28.7 64-64 64H96c-35.3 0-64-28.7-64-64V64zM384 311.6l56.4-25.1c4.6-2.1 7.6-6.6 7.6-11.7V172.8c0-7.1-5.7-12.8-12.8-12.8H384V311.6zM160 144c0-8.8-7.2-16-16-16s-16 7.2-16 16V368c0 8.8 7.2 16 16 16s16-7.2 16-16V144zm64 0c0-8.8-7.2-16-16-16s-16 7.2-16 16V368c0 8.8 7.2 16 16 16s16-7.2 16-16V144zm64 0c0-8.8-7.2-16-16-16s-16 7.2-16 16V368c0 8.8 7.2 16 16 16s16-7.2 16-16V144z"/></svg>

<svg xmlns="http://www.w3.org/2000/svg" viewBox="0 0 512 512"><!--! Font Awesome Pro 6.3.0 by @fontawesome - https://fontawesome.com License - https://fontawesome.com/license (Commercial License) Copyright 2023 Fonticons, Inc. --><defs><style>.fa-secondary{opacity:.4}</style></defs><path class="fa-primary" d="M144 128C135.1 128 128 135.1 128 144v224C128 376.9 135.1 384 144 384S160 376.9 160 368v-224C160 135.1 152.9 128 144 128zM208 128C199.1 128 192 135.1 192 144v224C192 376.9 199.1 384 208 384S224 376.9 224 368v-224C224 135.1 216.9 128 208 128zM272 128C263.1 128 256 135.1 256 144v224c0 8.875 7.125 16 16 16s16-7.125 16-16v-224C288 135.1 280.9 128 272 128z"/><path class="fa-secondary" d="M432 96H384V64c0-17.67-14.33-32-32-32H64C46.33 32 32 46.33 32 64v352c0 35.35 28.65 64 64 64h224c35.35 0 64-28.65 64-64v-32.08l80.66-35.94C493.5 335.1 512 306.5 512 275V176C512 131.8 476.2 96 432 96zM160 368C160 376.9 152.9 384 144 384S128 376.9 128 368v-224C128 135.1 135.1 128 144 128S160 135.1 160 144V368zM224 368C224 376.9 216.9 384 208 384S192 376.9 192 368v-224C192 135.1 199.1 128 208 128S224 135.1 224 144V368zM288 368c0 8.875-7.125 16-16 16S256 376.9 256 368v-224C256 135.1 263.1 128 272 128S288 135.1 288 144V368zM448 275c0 6.25-3.75 12-9.5 14.62L384 313.9V160h48C440.9 160 448 167.1 448 176V275z"/></svg>
